X:1
T:Vivaldi's Rain
T:Vivaldi's Rain
%%score 1 { ( 2 5 ) | ( 3 4 ) }
L:1/8
Q:1/4=80
M:4/4
K:Bb
V:1 treble transpose=-2 nm="B♭ Clarinet" snm="B♭ Cl."
V:2 treble nm="Piano" snm="Pno."
V:5 treble 
V:3 bass 
V:4 bass 
V:1
[K:C] z8 | z8 |!mf! (c2 gf e3/2f/4e/4 dc | d2) G4 G2 | (f(3e/f/e/ dc B2) f2 | %5
!>(! f(g/f/ e4) e2!>)! |!p!!<(! d2 (ef) g2 (ab)!<)! |!mp!!<(! c2 (de) f2 (ga)!<)! | %8
!mf!!<(! B2 (cd) e2 (fg)!<)! |!f!!<(! A2 (Bc) d2 ec!<)! |[K:G] B4 z (GFG) | d2 d3 (GFG) | %12
 e4 z (GFG) | f2 f3 dcd | g2 G3 z g2 | gfed cBAG | A2 d4- d!>!G | (TG8 |!>(! G4) z4!>)! | %19
!mp! !>!G!>!G!>!d!>!c !tenuto!B(c/B/ A)G | A2 D3 z D2 | (cBAG F2) c2 |[K:C] (cB)!<(! B4 !>!G2!<)! | %23
!mf! fe (d/e/d/c/) B2 f2 |!>(! f(g/f/ e4) e2!>)! |!p!!<(! !>!A2 (Bc) d2 (ef)!<)! | %26
!mp!!<(! !>!B2 (cd) e2 (fg)!<)! |!mf!!<(! !>!c2 (de) .f.f(ga)!<)! |!f! !>!B2 B3 z!mp!!<(! Bc | %29
 (dBAG)!<)!!mf!!>(! (efge)!>)! | d2 !>!G3 z!mp!!<(! Bc | (dBAG) (efge) | %32
 d>!>!G!<)!!f! G3 z!ff! dg |[Q:1/4=75]"^rit." ee (d/e/d/c/) B2 (Bc) |[Q:1/4=70] c4 c4- | %35
[Q:1/4=65]!>(! c8-!>)! |!>(! c8-!>)! | c z z2 z4 |] %38
V:2
!mp! z [gb][bd'][Bd] [df][FB][Bd][DF] | [Bd][fb][bd'][Bd] [df][FB][Bd][DF] | %2
 z [FB][Bd][FB] z [FB][Bd][FB] | z [Ac][ce][Bd] [ce][Bd][ce][Ac] | %4
 z [Ac][ce][Bd] [ce][Bd][ce][Ac] | z [FB][Bd][FB] z [DF][FB][Bd] | %6
 [Ac][FA] z [Ac] [Bd][ce][Bd][Ac] | [GB][DG][Ac][GB] [Ac][GB][FA][Ac] | %8
 [FA][EF]E[FA] [GB][FA][EG][EF] | [EG]E[FA][GB] [FA][EG][DF][EG] | %10
[K:F] [FA][CF][FA][CF] C[FA][Ac][FA] | z [FA][Ac][GB] [Ac][GB][Ac][FA] | %12
 z [FB][Bd][FB] [DF][FB][Bd][FB] | [EG][Gc][EG][Gc] E[EG][Gc][EG] | F[EG][FA][GB] [FA][EG]FC | %15
 [Gc][EG][Gc][EG] E[EG][Gc][EG] | [Gc][EG][Gc][EG] E[EG][Gc][EG] | z [CF][FA][CF] z [CF][FA][CF] | %18
 z [CF][FA][CF] z [CF][FA][CF] | z [CF][FA][CF] z [CF][FA][CF] | z [CE]DE C[EG][GB][EG] | %21
 [CE][EG][GB][EG] [CE][EG][GB][EG] |[K:Bb] z [CF][FA][CF] z [CF][FA][CF] | %23
 z [Ac][ce][Ac] z [Ac][ce][Ac] | z [FB][Bd][FB] [DF][FB][Bd][FB] | [EG]E[EG][Gc] [EG]E[EG][Gc] | %26
 [FA][Ac][FA]F [FA][Ac][FA]F | [GB][Bd][GB]G [GB][Bd][GB]G | [FA][Ac][FA]F [FA][Ac][FA]F | %29
 z A[Ac]A z B[Bd]B | z A[Ac]A z A[Ac]A | z A[Ac]A z B[Bd]B | z A[Ac]A z A[Ac]A | %33
 B[DF][Bd][FB] A[EF][Ac][EA] | [FB][DF][Bd][FB] [DF][FB][Bd][FB] | D[DF][FB][DF] D[DF][FB][DF] | %36
 F z (3B,DF B z d z | !arpeggio![DFBdf]8 |] %38
V:3
 F,4 z4 | F,4 z4 | D6 z2 | E6 z2 | E6 z2 | D6 z2 | E6 z2 | F6 z2 | E6 z2 | D4 C4 |[K:F] C6 z2 | %11
 C6 z2 | D6 z2 | C6 z2 | C6 z2 | C6 z2 | C6 z2 | C6 z2 | C6 z2 | C6 z2 | E6 z2 | C6 z2 | %22
[K:Bb] C6 z2 | C6 z2 | D6 z2 | D4 C4 | E6 z2 | D6 z2 | E6 z2 | z8 | z8 | z8 | z8 | B,8 | B,8 | %35
 B,8 | B,8- | B,8 |] %38
V:4
 x8 | x8 | B,,2 B,,2 B,,2 B,,2 | F,,2 F,,2 F,,2 F,,2 | F,,2 F,,2 F,,2 F,,2 | B,,2 B,,2 B,,2 B,,2 | %6
 A,,2 A,,2 A,,2 A,,2 | G,,2 G,,2 G,,2 G,,2 | F,,2 F,,2 F,,2 F,,2 | E,,2 E,,2 E,,2 E,,2 | %10
[K:F] F,,2 F,,2 F,,2 F,,2 | F,,2 F,,2 F,,2 F,,2 | B,,2 B,,2 B,,2 B,,2 | B,,2 B,,2 B,,2 B,,2 | %14
 F,,2 F,,2 F,,2 F,,2 | C,2 C,2 C,2 C,2 | C,2 C,2 C,2 C,2 | F,,2 F,,2 F,,2 F,,2 | %18
 F,,2 F,,2 F,,2 F,,2 | F,,2 F,,2 F,,2 F,,2 | C,2 C,2 C,2 C,2 | C,2 C,2 C,2 C,2 | %22
[K:Bb] F,,2 F,,2 F,,2 F,,2 | F,,2 F,,2 F,,2 F,,2 | B,,2 B,,2 B,,2 B,,2 | E,2 E,2 E,2 E,2 | %26
 F,,2 F,,2 F,,2 F,,2 | G,,2 G,,2 G,,2 G,,2 | F,,2 F,,2 F,,2 F,,2 | F,,2 F,,2 F,,2 F,,2 | %30
 F,,2 F,,2 F,,2 F,,2 | F,,2 F,,2 F,,2 F,,2 | F,,2 F,,2 F,,2 F,,2 | B,,2 B,,2 F,,2 F,,2 | %34
 B,,2 B,,2 B,,2 B,,2 | B,,2 B,,2 B,,2 B,,2 | B,,8- | B,,8 |] %38
V:5
 x8 | x8 | x8 | x8 | x8 | x8 | x8 | x8 | x8 | x8 |[K:F] x8 | x8 | x8 | x8 | x8 | x8 | x8 | x8 | %18
 x8 | x8 | x8 | x8 |[K:Bb] x8 | x8 | x8 | x8 | x8 | x8 | x8 | F4 F4 | F4 F4 | F4 F4 | F4 F4 | x8 | %34
 x8 | x8 | x8 | x8 |] %38

